X: 5
T: The Queen Of May
R: reel
M: 4/4
L: 1/8
K: Edor
(Be2)(fe2) dB|A2FD FAAc|Bdde d2ec|dBA=c B(E E2):||
((3Bcd) eg (fd)ec|defg afed|((3Bcd) eg (fd)ec|dBA=c B(E E2)|
((3Bcd) eg fdec|defg afdf|g2ge f2fe|dBA=c BEE2||


Tune 2518	Setting 15809

